X:1

T:White Leaf, The

M:4/4

L:1/8

B:Bulmer & Sharpley, book 4, 27

K:A

(3EFG|A2 cA eAcA|(3Bcd ef edcA|Bcde fdde|fdad fdcB|

A2cA eAcA|(3Bcd ef edcA|Bcde fgaf|edcB A2:|

|:ce|eA A2 cAce|a2 ga fece|bf f2 fece|bffe ^defg|

aA A2 cAce|a2 ga faec|Bcde fgaf|edcB A2:|

                       

WHITE LIGHTNING.  Canadian, Reel. Canada, Cape Breton. Composed by Cape Breton fiddler Rodney MacDonald. Smithsonian Folkways Records, SFW CD 40507, The Beaton Family of Mabou – “Cape Breton Fiddle and Piano Music” (2004).

 

WHITE LIGHTNING, MY ASS! Irish, Jig. A Major. Standard tuning. AABB. Composed by Falmouth, Massachusetts, writer and musician Bill Black.

